!!!OTL-incipit: Muede kehrt ein Wandersmann zurueck nach der Heimat seiner Liebe Glueck
!!!ARE: Europa, Mitteleuropa, Deutschland, Schlesien, Hirschberg
!!!SCT: D1009
!!!TXL: @@DE
!!!YEM: Copyright 1995, estate of Helmut Schaffrath.
**kern
*ICvox
*M4/4
*k[f#]
*G:
{8d\L
8bJ
=1
4.b
8a\
8g\
8f#\
8g\
8a\
=2
2d\
4r}
{8d\L
8f#J
=3
4.a\
8g\
8f#\
8a\
8cc\
8b\
=4
2g\
4r}
{8g\L
8aJ
=5
4.b
8dd
8cc
8b
8a\
8g\
=6
2cc\
8r}
{8cc\
8b\
8a\
=7
4.d\
8g\
8f#\
8a\
8cc
8b
=8
2g\
4r}
==
!!!AGN: Liebes - Lied
!! DVA-Signatur A 51 775
!!!ONB: ESAC (Essen Associative Code) Database: DVA
!!!AMT: simple quadruple
!!!AIN: vox
!!!EED: Helmut Schaffrath
!!!EEV: 1.0
!!!YOR: https://freidok.uni-freiburg.de/data/150373
!!!EFL: A 051 101 - 051 800  Schlesische Gesellschaft f. Volksk (p. 450)
!!!ENC: Anna Maria Matuszewska
!!!EEV: 2025/03/31
*-
